shared/images/iconfont/kb-iconfont-timer-16.svg

<?xml version="1.0" encoding="UTF-8"?>
<svg width="16px" height="17px" viewBox="0 0 16 17" version="1.1" xmlns="http://www.w3.org/2000/svg" xmlns:xlink="http://www.w3.org/1999/xlink">
    <!-- Generator: sketchtool 49.2 (51160) - http://www.bohemiancoding.com/sketch -->
    <title>5EC82C7A-D593-475D-B4C0-F865B57163F1</title>
    <desc>Created with sketchtool.</desc>
    <defs></defs>
    <g id="Colors,-icons" stroke="none" stroke-width="1" fill="none" fill-rule="evenodd">
        <g id="Icons-2" transform="translate(-431.000000, -509.000000)">
            <g id="kb-iconfont-timer-16" transform="translate(431.000000, 509.000000)">
                <rect id="icon-area" x="0" y="0" width="16" height="17"></rect>
                <path d="M13.6666621,5.89077588 L14.7647401,4.91457418 C15.0534468,4.6581113 15.0795887,4.21616059 14.8231295,3.92744964 C14.5666704,3.6387387 14.1247261,3.61259647 13.8360194,3.86905935 L12.7367596,4.84628901 C9.99069435,2.32220582 5.74782566,2.39471766 3.08961092,5.01116155 C0.43139619,7.62760543 0.291636903,11.8688535 2.77183568,14.6546254 C5.25203446,17.4403973 9.48092486,17.792082 12.3872015,15.4542625 C15.2934781,13.1164429 15.856198,8.91036928 13.666676,5.89077588 L13.6666621,5.89077588 Z M8.00690765,14.8272625 C6.70834901,14.8290543 5.46266803,14.2999473 4.54570079,13.3571038 L8.00690765,9.80791859 L8.00690765,4.78857468 C10.7102988,4.78857468 12.9018304,7.03581149 12.9018304,9.80791859 C12.9018304,12.5800257 10.7102988,14.8272625 8.00690765,14.8272625 Z M5.6,2 C5.26862915,2 5,1.55228475 5,1 C5,0.44771525 5.26862915,0 5.6,0 L10.4,0 C10.7313708,0 11,0.44771525 11,1 C11,1.55228475 10.7313708,2 10.4,2 L5.6,2 Z" id="Combined-Shape" fill="#000000" fill-rule="nonzero"></path>
            </g>
        </g>
    </g>
</svg>

<svg xmlns="http://www.w3.org/2000/svg" width="16" height="17" viewBox="0 0 16 17">
    <g fill="none" fill-rule="evenodd">
        <path d="M0 0h16v17H0z"/>
        <path fill="#000" fill-rule="nonzero" d="M13.667 5.89l1.098-.975a.7.7 0 0 0-.929-1.046l-1.1.977a7 7 0 1 0 .93 1.045zm-5.66 8.937a4.818 4.818 0 0 1-3.461-1.47l3.46-3.55V4.79c2.704 0 4.896 2.247 4.896 5.019 0 2.772-2.192 5.02-4.895 5.02zM5.6 2C5.269 2 5 1.552 5 1s.269-1 .6-1h4.8c.331 0 .6.448.6 1s-.269 1-.6 1H5.6z"/>
    </g>
</svg>
